public/icons/ftelegram.svg

<svg width="21" height="17" viewBox="0 0 21 17" fill="none" xmlns="http://www.w3.org/2000/svg">
<path d="M18.947 0.424022L1.66026 7.0901C0.480515 7.56395 0.48734 8.22207 1.44381 8.51555L5.88201 9.90005L16.1507 3.42117C16.6363 3.12575 17.0799 3.28467 16.7152 3.60837L8.39557 11.1168H8.39361L8.39557 11.1178L8.08942 15.6925C8.53791 15.6925 8.73584 15.4868 8.98739 15.244L11.1431 13.1478L15.6271 16.4598C16.4539 16.9152 17.0477 16.6812 17.2534 15.6945L20.197 1.82217C20.4982 0.614147 19.7358 0.0671716 18.947 0.424022Z" fill="white"/>
</svg>

<svg width="21" height="17" fill="none" xmlns="http://www.w3.org/2000/svg"><path d="M18.947.424 1.66 7.09C.48 7.564.487 8.222 1.444 8.516L5.882 9.9l10.269-6.479c.485-.295.929-.136.564.187l-8.32 7.509h-.001.002l-.307 4.575c.449 0 .647-.205.898-.448l2.156-2.096 4.484 3.312c.827.455 1.42.221 1.626-.766l2.944-13.872c.301-1.208-.461-1.755-1.25-1.398z" fill="#fff"/></svg>
